X:736
%%etbk:tnset id:463,pos:4,rep:3x,ant:
%%etbk:wsite https://thesession.org/tunes/9825
%%etbk:video src:ytube,cde:lswbZ28ldiI,desc:last tune
%%etbk:pldat 2016-09-10T14:54,2016-08-18T18:49,2016-08-17T16:11,2016-08-16T16:12,2016-08-15T19:19,2016-08-12T16:40,2016-08-11T18:53,2016-08-10T16:29,2016-08-09T15:42,2016-08-08T18:42,2016-08-06T11:18,2016-06-09T19:06,2016-06-08T16:21,2016-06-07T16:21,2016-06-04T15:27,2016-06-02T18:34,2016-06-01T16:39,2016-05-31T16:55,2016-05-30T18:49,2016-05-29T11:41,2016-05-19T18:56,2016-05-18T16:42,2016-05-17T16:27,2016-05-16T14:50,2016-05-14T16:22,2016-05-13T16:49,2016-05-11T16:31,2016-05-10T18:18,2016-03-03T19:05,2016-03-02T16:22,2016-03-01T17:31,2016-02-29T18:48,2016-02-27T13:41,2016-02-23T16:38,2016-02-16T17:45,2016-02-13T16:17,2016-01-05T17:01,2016-01-04T18:06,2016-01-03T13:09,2016-01-01T16:14,2015-12-31T13:39,2015-12-29T16:59,2015-12-28T16:58,2015-12-23T16:01,2015-12-21T18:34,2015-12-01T16:44,2015-11-28T16:51,2015-11-25T15:29,2015-11-20T16:41,2015-11-19T18:34,2015-11-18T16:25,2015-11-17T15:42,2015-11-15T14:36,2015-11-14T15:19,2015-11-13T17:53,2015-11-12T18:52,2015-11-11T16:31,2015-11-10T15:58,2015-11-09T18:53,2015-11-08T13:55,2015-11-04T17:17,2015-11-01T15:28,2015-10-27T17:12,2015-10-25T15:11,2015-10-20T15:58,2015-10-17T15:16,2015-10-14T16:54,2015-10-13T17:28,2015-10-12T17:57,2015-10-06T17:21,2015-09-30T16:53,2015-09-29T16:51,2015-09-28T19:08,2015-09-10T16:51,2015-09-09T17:15,2015-09-08T19:05,2015-09-07T18:35,2015-09-03T17:14,2015-09-02T16:46,2015-09-01T17:31,2015-08-31T19:07,2015-08-30T15:22,2015-08-28T19:20,2015-08-27T18:48,2015-08-24T19:06,2015-08-19T15:56,2015-08-18T16:30,2015-08-17T18:57,2015-08-10T18:09,2015-08-05T17:05,2015-08-04T17:19,2015-08-02T11:52,2015-08-01T17:00,2015-07-30T19:07,2015-07-29T15:45,2015-07-27T18:09,2015-07-25T14:14,2015-07-23T18:17,2015-07-22T15:33,2015-07-20T18:04,2015-07-19T15:05,2015-07-18T14:40,2015-07-17T10:06,2015-07-16T16:29,2015-07-15T11:49,2015-07-11T14:24,2015-07-08T15:14,2015-07-07T08:49,2015-06-22T19:17,2015-06-18T19:28,2015-06-16T17:49,2015-06-15T19:44,2015-06-14T16:58,2015-06-13T17:37,2015-06-10T18:33,2015-06-09T17:52,2015-06-06T14:23,2015-06-04T18:38,2015-06-01T18:08,2015-05-31T15:17,2015-05-27T19:34,2015-05-25T13:43,2015-05-23T14:49
T: Night Ride To Armagh
Z: Piano Box Version by Martin Fleischmann
H: Created 2015-05-23 /  Last Modified 2015-07-07
R: reel
M: 4/4
L: 1/8
K: Edor
ED |: "em"!2!EE!3!GE !4!A!5!B z A- | AGED !2!E2 EF | !4!G!1!E!2!E!1!E !5!AGE!1!D | "bm"!5!B2 B2 AGED |
"em"EEGE AB z A- | AGED E2 EF | GEEE AGED | E6 :|
!5!e!4!d |: "em"!2!B!1!EEE BEE !4!d | z !5!e!2!B!1!EE !4!ddc | "A"!2!AEEE !2!A!3!B!4!c!5!e- | e!4!d!2!BA deBA |
"em"!2!BEEE BEE !4!d | z !5!e!2!BEE !4!d2 d- | "bm"d!2!BA!2!F !4!ABA!2!F |"em" !1!E2 ED E2 :|


